src/icons/clock.svg

<?xml version="1.0" encoding="UTF-8"?>
<svg width="16px" height="16px" viewBox="0 0 16 16" version="1.1" xmlns="http://www.w3.org/2000/svg" xmlns:xlink="http://www.w3.org/1999/xlink">
    <path d="M8,0 C12.411198,0 16,3.58880199 16,8 C16,12.411198 12.411198,16 8,16 C3.58880199,16 0,12.411198 0,8 C0,3.58880199 3.58880199,0 8,0 Z M8.00000002,14.2977358 C11.4725402,14.2977358 14.2979004,11.4727048 14.2979004,8.00000002 C14.2979004,4.5272952 11.4725402,1.70226431 8.00000002,1.70226431 C4.52745987,1.70226431 1.70209963,4.5272952 1.70209963,8.00000002 C1.70209963,11.4727048 4.52745987,14.2977358 8.00000002,14.2977358 Z M12.1692878,7.75298479 C12.533059,7.75298479 12.8279951,8.04792098 12.8279951,8.41169208 C12.8279951,8.77546318 12.533059,9.07039936 12.1692878,9.07039936 L7.91535613,9.07039936 C7.55158503,9.07039936 7.25664885,8.77546318 7.25664885,8.41169208 L7.25664885,3.43021821 C7.25664885,3.06644711 7.55158503,2.77151092 7.91535613,2.77151092 C8.27912724,2.77151092 8.57406343,3.06644711 8.57406343,3.43021821 L8.57406343,7.75298479 L12.1692878,7.75298479 Z"></path>
</svg>

<svg viewBox="0 0 16 16" xmlns="http://www.w3.org/2000/svg">
    <path d="M8 0c4.411 0 8 3.589 8 8s-3.589 8-8 8-8-3.589-8-8 3.589-8 8-8zm0 14.298A6.305 6.305 0 0014.298 8 6.305 6.305 0 008 1.702 6.305 6.305 0 001.702 8 6.305 6.305 0 008 14.298zm4.17-6.545a.659.659 0 010 1.317H7.914a.659.659 0 01-.658-.658V3.43a.659.659 0 011.317 0v4.323h3.595z"/>
</svg>
